packages/vibrant-icons/assets/icons/TextH3/Fill.svg

<svg width="24" height="24" viewBox="0 0 24 24" fill="none" xmlns="http://www.w3.org/2000/svg">
<path d="M13.3005 21V13.1754H4.15V21H1.75V3H4.15V10.7754H13.3V3H15.7V21H13.3005Z" fill="#0C0C0C"/>
<path d="M17.0999 20.5564C17.2189 22.0349 18.4974 22.9904 20.3574 22.9904C22.3564 22.9904 23.6474 22.0264 23.6474 20.5329V20.5219C23.6474 19.5774 23.0474 18.9124 22.0219 18.6924C22.8349 18.4019 23.3414 17.7399 23.3414 16.9289V16.9179C23.3414 15.6074 22.0934 14.7609 20.3414 14.7609C18.5894 14.7609 17.3884 15.6954 17.2824 17.1419L17.2689 17.3239H19.2549L19.2694 17.1859C19.3189 16.7179 19.7339 16.4269 20.3409 16.4269C20.9479 16.4269 21.3099 16.7104 21.3099 17.1864V17.1974C21.3099 17.6954 20.8814 18.0049 20.1909 18.0049H19.2584V19.5424H20.2014C21.2829 19.5424 21.4444 20.0854 21.4444 20.4089V20.4199C21.4444 20.9174 20.9884 21.2384 20.3519 21.2384C19.7154 21.2384 19.2459 20.9534 19.1829 20.5249L19.1569 20.3844H17.0854L17.0999 20.5564Z" fill="#0C0C0C"/>
</svg>

<svg xmlns="http://www.w3.org/2000/svg" width="24" height="24" fill="none"><path fill="#0C0C0C" d="M13.3 21v-7.825H4.15V21h-2.4V3h2.4v7.775h9.15V3h2.4v18zm3.8-.444c.119 1.479 1.397 2.434 3.257 2.434 2 0 3.29-.964 3.29-2.457v-.011c0-.945-.6-1.61-1.625-1.83.813-.29 1.32-.952 1.32-1.763v-.011c0-1.31-1.249-2.157-3-2.157-1.753 0-2.954.934-3.06 2.38l-.013.183h1.986l.014-.138c.05-.468.465-.76 1.072-.76s.969.284.969.76v.011c0 .498-.429.808-1.12.808h-.932v1.537h.943c1.082 0 1.243.543 1.243.867v.01c0 .498-.456.82-1.092.82s-1.106-.286-1.17-.714l-.025-.14h-2.072z"/></svg>
